X:174
T:Timothy Sharp
M:6/8
L:1/8
B:Thompson's Compleat Collection of 200 Favourite Country Dances, vol. 3 (London, 1773)
Z:Transcribed and edited by Flynn Titford-Mock, 2007
Z:abc's:AK/Fiddler's Companion
K:D
A | dAd "tr"d3 | eAe "tr"e3 | eag fed | ced cBA | dAd "tr"d3 | eAe "tr"e3 | fag fed | a3 A2 :|
|: (a | a)f^d eBG | EGB E2(g | g)ec fdA | FAF D2A | Bge caf | Bge cBA | Bdg afd | gec d2 :|

